assets/images/devices/desktop.svg

<svg width="28" height="28" viewBox="0 0 28 28" fill="none" xmlns="http://www.w3.org/2000/svg">
<path d="M18.8953 23.4698L16.3438 20.704C14.7832 20.6143 13.2187 20.6143 11.6582 20.704L9.10666 23.47C8.99352 23.5957 8.91902 23.7514 8.89209 23.9184C8.86515 24.0854 8.88693 24.2566 8.9548 24.4115C9.02267 24.5665 9.13376 24.6985 9.27478 24.792C9.41579 24.8854 9.58074 24.9362 9.74987 24.9382H18.2521C18.4212 24.9362 18.5862 24.8854 18.7272 24.7919C18.8683 24.6985 18.9794 24.5664 19.0473 24.4115C19.1151 24.2565 19.1369 24.0853 19.1099 23.9183C19.083 23.7512 19.0085 23.5955 18.8953 23.4698Z" fill="#596C76"/>
<path d="M25.8125 3.0625H2.1875C1.83952 3.06288 1.5059 3.20129 1.25984 3.44734C1.01379 3.6934 0.875382 4.02702 0.875 4.375V17.9375H27.125V4.375C27.1246 4.02702 26.9862 3.6934 26.7402 3.44734C26.4941 3.20129 26.1605 3.06288 25.8125 3.0625Z" fill="#8AC9FE"/>
<path d="M26.25 17.0625H0.875V20.125C0.875382 20.473 1.01379 20.8066 1.25984 21.0527C1.5059 21.2987 1.83952 21.4371 2.1875 21.4375H25.8125C26.1605 21.4371 26.4941 21.2987 26.7402 21.0527C26.9862 20.8066 27.1246 20.473 27.125 20.125V17.0625H26.25Z" fill="#788D96"/>
<path d="M14.875 19.25C14.875 19.4821 14.7828 19.7046 14.6187 19.8687C14.4546 20.0328 14.2321 20.125 14 20.125C13.7679 20.125 13.5454 20.0328 13.3813 19.8687C13.2172 19.7046 13.125 19.4821 13.125 19.25C13.125 19.0179 13.2172 18.7954 13.3813 18.6313C13.5454 18.4672 13.7679 18.375 14 18.375C14.2321 18.375 14.4546 18.4672 14.6187 18.6313C14.7828 18.7954 14.875 19.0179 14.875 19.25Z" fill="#596C76"/>
</svg>

<svg xmlns="http://www.w3.org/2000/svg" width="28" height="28" fill="none" xmlns:v="https://vecta.io/nano"><path d="M18.895 23.47l-2.551-2.766c-1.561-.09-3.125-.09-4.686 0L9.107 23.47a.88.88 0 0 0-.152.942.88.88 0 0 0 .795.527h8.502a.88.88 0 0 0 .795-.527.88.88 0 0 0-.152-.942z" fill="#596c76"/><path d="M25.813 3.063H2.188c-.348 0-.682.139-.928.385s-.384.58-.385.928v13.563h26.25V4.375c0-.348-.139-.682-.385-.928s-.58-.384-.928-.385z" fill="#8ac9fe"/><path d="M26.25 17.063H.875v3.063c0 .348.139.682.385.928s.58.384.928.385h23.625c.348 0 .682-.139.928-.385s.384-.58.385-.928v-3.062h-.875z" fill="#788d96"/><path d="M14.875 19.25c0 .232-.092.455-.256.619s-.387.256-.619.256-.455-.092-.619-.256-.256-.387-.256-.619.092-.455.256-.619.387-.256.619-.256.455.092.619.256.256.387.256.619z" fill="#596c76"/></svg>
